source/assets/img/share/icon_share_twitter.svg

<?xml version="1.0" encoding="UTF-8" standalone="no"?>
<svg width="40px" height="40px" viewBox="0 0 40 40" version="1.1" xmlns="http://www.w3.org/2000/svg" xmlns:xlink="http://www.w3.org/1999/xlink">
    <!-- Generator: Sketch 42 (36781) - http://www.bohemiancoding.com/sketch -->
    <desc>Created with Sketch.</desc>
    <defs>
        <rect id="path-1" x="0" y="0" width="40" height="40" rx="20"></rect>
    </defs>
    <g id="Page-1" stroke="none" stroke-width="1" fill="none" fill-rule="evenodd">
        <g id="Group-7-Copy">
            <g id="Rectangle-1254-Copy-6">
                <use fill="#5AA8DF" xlink:href="#path-1"></use>
            </g>
            <path d="M28.0146142,14.0888889 C28.8513634,13.5893333 28.889681,13.2391111 29.1917662,12.2942222 C28.4093744,12.7573333 27.5423276,13.0942222 26.6200321,13.2764444 C25.8821957,12.4915556 24.8289075,12 23.6651221,12 C21.4284441,12 19.615933,13.8097778 19.615933,16.0391111 C19.615933,16.3564444 19.6515773,16.6648889 19.7201925,16.96 C16.3544823,16.792 13.3710569,15.1831111 11.3740866,12.7386667 C11.0256639,13.336 10.8251649,14.0302222 10.8251649,14.7706667 C10.8251649,16.1724444 11.5407236,17.408 12.6269827,18.1324444 C11.9631082,18.1102222 11.3393335,17.9297778 10.793085,17.6275556 C10.7921939,17.6444444 10.7921939,17.6604444 10.7921939,17.6782222 C10.7921939,19.6355556 12.1885582,21.2675556 14.0411691,21.6391111 C13.447692,21.8 12.8221351,21.8248889 12.211727,21.7084444 C12.7276778,23.3128889 14.2229549,24.48 15.9944751,24.5137778 C14.2621636,25.8684444 12.1137052,26.4328889 10,26.1857778 C11.7920157,27.3315556 13.9199786,28 16.2065585,28 C23.6553199,28 27.7267867,21.8453333 27.7267867,16.5075556 C27.7267867,16.3324444 27.7241133,16.1591111 27.7160934,15.9848889 C28.5065051,15.416 29.457316,14.8853333 30,14.0746667 C29.2746391,14.3973333 28.6633399,14.408 28.0146142,14.0888889 Z" id="Fill-1" fill="#FFFFFF"></path>
        </g>
    </g>
</svg>

<svg width="40" height="40" viewBox="0 0 40 40" xmlns="http://www.w3.org/2000/svg" xmlns:xlink="http://www.w3.org/1999/xlink"><defs><rect id="a" width="40" height="40" rx="20"/></defs><g fill="none" fill-rule="evenodd"><use fill="#5AA8DF" xlink:href="#a"/><path d="M28.015 14.089c.836-.5.875-.85 1.177-1.795-.783.463-1.65.8-2.572.982A4.048 4.048 0 0 0 23.665 12a4.045 4.045 0 0 0-3.945 4.96 11.501 11.501 0 0 1-8.346-4.221 4.035 4.035 0 0 0 1.253 5.394 4.06 4.06 0 0 1-1.834-.505v.05a4.045 4.045 0 0 0 3.248 3.961 4.074 4.074 0 0 1-1.83.07 4.055 4.055 0 0 0 3.783 2.805A8.154 8.154 0 0 1 10 26.186 11.482 11.482 0 0 0 16.207 28c7.448 0 11.52-6.155 11.52-11.492 0-.176-.003-.349-.01-.523.79-.569 1.74-1.1 2.283-1.91-.725.322-1.337.333-1.985.014z" fill="#FFF"/></g></svg>
